!!!OTL: Tuerkengefahr.
!!!OTL-incipit: HORCHT HORCHT DER GLOCKENSTIMME
!!!ARE: Europa, Mitteleuropa, Deutschland, Niederrhein
!!!SCT: Z1133
!!!TXL: @@DE
!!!YEM: Copyright 1995, estate of Helmut Schaffrath.
**kern	**text
*ICvox	*
*M4/4	*
*met(c)	*
*k[b-e-]	*
*g:	*
!LO:TX:a:t=Vom Niederrhein.	!
{4g	Horcht,
=1	=1
4g	horcht
4g	der
4b-/	Glok-
4b-/	-ken-
=2	=2
2g	-ſtim-
4f}	-me,
{4f	eilt
=3	=3
4b-/	ʒu
4b-/	den
4cc/	Waf-
4cc/	-fen
=4	=4
2dd/	hin,
4r}	.
{4cc/	auf,
=5	=5
4dd/	rü-
8dd/	-ſtet
8dd/	euch
4dd/	All'
4cc/	im
=6	=6
2dd/	Grim-
4cc/}	-me,
{4dd/	das
=7	=7
4dd/	An-
4dd/	-dre
4cc/	aus
4cc/	dem
=8	=8
2b-/	Sinn!
4r}	.
{4b-	Wir
=9	=9
4cc/	Brüder
4b-/	.
4cc/	al-
4cc/	-le-
=10	=10
2dd/	-ſam-
4dd/}	-men,
{4b-/	wir
=11	=11
4.cc/	glühn
8cc/	in
4b-/	glei-
4a	-chen
=12	=12
2g	Flam-
4f}	-men,
{4f	wir
=13	=13
4cc/	wer-
4b-/	-fen
4cc/	von
4cc/	uns
=14	=14
2.dd}	weit
{4b-/	all'
=15	=15
4cc/	ir-
4b-/	-diſch
4a/	Sorg
4g	und
=16	=16
(>2cc/	Leid.
4dd/)}	.
{8b-/	Ki-
8b-/	-ri-
=17	=17
4b-/	-e-
2a/	-lei-
4f#	.
=18	=18
2g/	-ſon!
4r}	.
==	==
!!!AGN: Vaterland und Wehr
!!!ONB: ESAC (Essen Associative Code) Database: ZUCCAL
!!!AMT: simple quadruple
!!!AIN: vox
!!!EED: Helmut Schaffrath
!!!EEV: 1.0
!!!RDF**kern: >= above
!!!GTL: IV. Vaterland und Wehr.
!!!URL-scan: https://www.digitale-sammlungen.de/de/view/bsb11160573?page=295
!!!ENC: Anna Maria Matuszewska
!!!EEV: 2025/02/04
*-	*-
